X:1
T:Bonny Green Garters
M:6/8
C:
S:Bacon (MDT)
N:commonly used as B  C parts of recessional
A:Headington
O:English
R:Jig
%P:A/2.(AB)$^4$
P:A.(AB)4
K:G
P:A
%Q:C3=100
d |: d>cB AGF | G>AB cde  | d2d  dcB |1 B3  A2 d :|2 A3  G2 ||\
P:B
d |  d>cB AGF | G3   A2 d | d>cB AGF | G3 A2 \
d |  d>cB AGF | G>AB cde  | d2d  dcB | A3 G2 ||
